src/assets/alby.svg

<svg width="1094" height="525" viewBox="0 0 1094 525" fill="none" xmlns="http://www.w3.org/2000/svg">
<path d="M172.452 437.295L162.566 424.018L162.566 440.653C166.328 440.781 169.982 439.128 172.452 437.295Z" fill="white"/>
<path fill-rule="evenodd" clip-rule="evenodd" d="M63.7767 157.807C48.6169 177.6 37.9387 201.849 33.2054 228.278C32.5741 231.804 32.337 235.32 32.4655 238.779C31.5442 239.56 30.6458 240.373 29.7719 241.217C18.1981 252.393 11.9775 268.011 11.9775 285.705C11.9775 305.014 17.0209 338.241 27.4676 367.006C32.6956 381.402 39.7187 395.938 49.0897 407.203C58.4781 418.491 71.9442 428.404 89.596 428.404C107.739 428.404 117.661 414.897 122.851 403.6C125.557 406.666 128.33 410.259 131.445 414.36L131.863 414.91C137.292 422.062 143.917 430.791 152.681 437.296C155.15 439.129 158.513 440.653 162.566 440.653L162.566 424.018L172.452 437.295C181.209 430.795 187.832 422.072 193.26 414.923L193.687 414.361C197.65 409.143 201.059 404.749 204.48 401.213C209.335 412.894 219.337 428.404 238.779 428.404C256.43 428.404 269.897 418.491 279.285 407.203C288.656 395.938 295.679 381.402 300.907 367.006C311.354 338.241 316.398 305.014 316.398 285.705C316.398 268.011 310.177 252.393 298.603 241.217C296.371 239.062 293.982 237.113 291.46 235.374C291.373 233.185 291.138 230.981 290.749 228.773C286.064 202.165 275.356 177.748 260.113 157.836L259.956 157.632C258.564 155.819 257.134 154.044 255.667 152.308L256.731 151.245L248.174 142.7L248.176 142.699L254.769 136.116L253.232 133.656L254.074 132.151L251.338 130.626L249.676 127.966L248.208 128.881L246.086 127.698L239.617 134.157L239.409 134.364L235.941 136.526L237.625 134.479C234.776 132.143 231.838 129.931 228.817 127.853C227.16 126.714 225.478 125.614 223.772 124.556C205.509 113.232 184.496 106.684 161.934 106.684C138.659 106.684 117.034 113.652 98.3767 125.641C97.0141 126.517 95.6673 127.419 94.3369 128.348C91.3098 130.46 88.3673 132.707 85.5154 135.08L86.4628 136.216L82.9986 134.114L74.4415 142.659L74.3384 142.556L74.3377 142.555L82.8698 134.036L82.9972 134.114L82.8948 134.011L76.3429 127.469L74.1326 128.737L72.6556 127.841L71.0264 130.519L68.3089 132.078L69.1688 133.573L67.7228 135.95L74.3384 142.556L75.4008 144.402C72.7144 147.138 70.1285 149.995 67.6487 152.965C66.3277 154.547 65.0367 156.162 63.7767 157.807ZM92.96 161.04L96.8438 157.113L101.01 153.646C118.379 139.193 139.314 130.851 161.934 130.851C184.297 130.851 205.011 139.005 222.261 153.153L226.454 156.592L230.361 160.491C248.587 178.678 261.823 204.059 266.913 232.958C267.366 235.533 267.407 238.07 267.088 240.518L265.979 249.038L273.674 252.882C276.689 254.388 279.407 256.298 281.776 258.587C288.116 264.709 292.194 273.8 292.194 285.705C292.194 302.101 287.678 332.545 278.155 358.768C273.394 371.875 267.529 383.513 260.666 391.763C253.803 400.015 246.52 404.238 238.779 404.238C236.415 404.238 234.496 403.394 232.453 401.28C230.16 398.908 228.018 395.175 226.201 390.349C224.963 387.063 223.858 383.261 222.886 379.001L219.285 363.225L205.158 371.152C204.316 371.624 203.468 372.083 202.616 372.527C190.119 379.041 181.65 390.204 175.017 398.947L174.402 399.758C170.108 405.41 166.444 410.163 162.566 413.973C158.688 410.163 155.023 405.41 150.73 399.758L150.116 398.95C143.485 390.207 135.019 379.046 122.525 372.533L108.785 365.368L105.158 380.415C104.267 384.112 103.271 387.436 102.174 390.349C100.357 395.175 98.2147 398.908 95.9222 401.28C93.8789 403.394 91.9604 404.238 89.596 404.238C81.855 404.238 74.5723 400.015 67.709 391.763C60.846 383.513 54.981 371.875 50.2209 358.768C40.6973 332.545 36.1807 302.101 36.1807 285.705C36.1807 273.8 40.2598 264.709 46.5982 258.587C48.1716 257.068 49.8946 255.719 51.7526 254.543L58.8025 250.086L57.1363 241.922C56.522 238.913 56.455 235.747 57.0306 232.533C62.1222 204.102 75.1047 179.097 92.96 161.04Z" fill="white"/>
<circle cx="61.8817" cy="120.27" r="34.9335" fill="white"/>
<circle cx="259.506" cy="120.27" r="34.9335" fill="white"/>
<ellipse opacity="0.3" cx="162.231" cy="480.452" rx="78.984" ry="14.5817" fill="white"/>
<path d="M238.43 409.465C279.325 409.465 297.939 318.929 297.939 284.601C297.939 257.845 279.473 241.629 255.196 241.629C231.071 241.629 211.486 252.001 211.243 264.845C211.242 298.742 205.275 409.465 238.43 409.465Z" fill="white" stroke="black" stroke-width="12.1514"/>
<path d="M89.271 409.465C48.3756 409.465 29.7619 318.929 29.7619 284.601C29.7619 257.845 48.2279 241.629 72.5042 241.629C96.6292 241.629 116.215 252.001 116.458 264.845C116.459 298.742 122.426 409.465 89.271 409.465Z" fill="white" stroke="black" stroke-width="12.1514"/>
<path d="M55.4763 273.994L55.4761 273.992C55.4323 273.574 55.5172 273.332 55.604 273.174C55.7064 272.987 55.901 272.765 56.2277 272.579C56.9043 272.195 57.8521 272.125 58.7343 272.642C89.041 290.406 123.998 300.59 162.003 300.59C200.015 300.59 235.62 290.208 266.122 272.133C266.998 271.614 267.943 271.678 268.622 272.06C268.95 272.245 269.146 272.467 269.25 272.654C269.338 272.813 269.424 273.056 269.382 273.475C264.663 320.233 239.301 358.89 205.211 376.684L205.211 376.684C193.951 382.562 186.209 392.773 179.409 401.742C179.287 401.902 179.166 402.063 179.045 402.222L179.044 402.224C173.517 409.515 168.515 416.044 162.402 420.855C156.289 416.044 151.287 409.515 145.76 402.224L145.759 402.222C145.638 402.063 145.516 401.902 145.394 401.741C138.594 392.773 130.852 382.562 119.593 376.684L119.592 376.684C85.6326 358.959 60.3347 320.526 55.4763 273.994Z" fill="#FFDF6F" stroke="black" stroke-width="12.0897"/>
<ellipse cx="162.635" cy="273.069" rx="106.932" ry="35.6441" fill="black" stroke="black" stroke-width="12.1514"/>
<path d="M76.7651 333.016C76.7651 333.016 129.509 350.838 163.445 350.838C197.381 350.838 250.125 333.016 250.125 333.016" stroke="black" stroke-width="12.1514" stroke-linecap="round"/>
<circle cx="24.1793" cy="24.1793" r="24.1793" transform="matrix(-1 0 0 1 86.2402 96.4688)" fill="black"/>
<path d="M58.0308 117.021L103.166 162.156" stroke="black" stroke-width="12.0897"/>
<circle cx="259.525" cy="120.648" r="24.1793" fill="black"/>
<path d="M263.958 117.021L218.823 162.156" stroke="black" stroke-width="12.0897"/>
<path fill-rule="evenodd" clip-rule="evenodd" d="M68.9238 264.933C55.8919 258.729 48.3076 244.797 50.8481 230.59C61.7524 169.609 107.195 123.872 161.599 123.872C216.134 123.872 261.665 169.831 272.428 231.033C274.931 245.267 267.285 259.192 254.209 265.346C226.228 278.513 194.974 285.874 162.002 285.874C128.687 285.874 97.1265 278.359 68.9238 264.933Z" fill="#FFDF6F"/>
<path d="M272.428 231.033L278.382 229.986L272.428 231.033ZM68.9238 264.933L66.3255 270.391L68.9238 264.933ZM56.7986 231.654C67.335 172.73 110.889 129.917 161.599 129.917V117.827C103.502 117.827 56.1697 166.488 44.8977 229.526L56.7986 231.654ZM161.599 129.917C212.431 129.917 256.074 172.939 266.475 232.08L278.382 229.986C267.256 166.723 219.837 117.827 161.599 117.827V129.917ZM251.635 259.876C224.442 272.673 194.066 279.829 162.002 279.829V291.918C195.883 291.918 228.013 284.354 256.783 270.815L251.635 259.876ZM162.002 279.829C129.604 279.829 98.9303 272.523 71.5221 259.475L66.3255 270.391C95.3227 284.196 127.769 291.918 162.002 291.918V279.829ZM266.475 232.08C268.481 243.492 262.371 254.824 251.635 259.876L256.783 270.815C272.199 263.56 281.381 247.042 278.382 229.986L266.475 232.08ZM44.8977 229.526C41.8533 246.551 50.9619 263.077 66.3255 270.391L71.5221 259.475C60.8219 254.381 54.7618 243.044 56.7986 231.654L44.8977 229.526Z" fill="black"/>
<path fill-rule="evenodd" clip-rule="evenodd" d="M92.1757 249.773C81.6857 245.5 75.4632 234.339 79.098 223.612C90.3076 190.529 123.007 166.589 161.599 166.589C200.191 166.589 232.89 190.529 244.099 223.612C247.734 234.34 241.512 245.501 231.022 249.773C209.597 258.498 186.159 263.306 161.599 263.306C137.038 263.306 113.601 258.498 92.1757 249.773Z" fill="black"/>
<ellipse cx="189.405" cy="218.171" rx="20.1494" ry="16.1196" fill="white"/>
<ellipse cx="131.723" cy="218.181" rx="20.1494" ry="16.1196" fill="white"/>
<path d="M557.242 263.387H514.695L535.489 204.206L557.242 263.387ZM507.338 134.467L425.763 352H483.665L498.7 309.133H573.877L589.552 355.199L646.815 349.441L565.56 134.467H507.338ZM721.012 352V126.15L662.79 129.669V352H721.012ZM782.355 352L811.146 322.889V126.15L752.924 129.669V352H782.355ZM792.272 257.309C798.457 250.911 804.215 245.793 809.547 241.954C814.878 238.115 820.103 236.196 825.222 236.196C831.406 236.196 836.525 237.582 840.577 240.355C844.842 243.127 848.041 247.286 850.174 252.831C852.52 258.162 853.693 264.774 853.693 272.665C853.693 280.555 852.52 287.38 850.174 293.138C847.828 298.896 844.736 303.268 840.897 306.254C837.058 309.24 832.686 310.733 827.781 310.733C822.236 310.733 816.478 309.24 810.506 306.254C804.535 303.055 798.457 298.577 792.272 292.818L775.957 327.048C781.928 333.872 787.9 339.417 793.871 343.683C800.056 347.735 806.241 350.72 812.426 352.64C818.824 354.559 825.222 355.519 831.62 355.519C848.041 355.519 862.33 352.427 874.486 346.242C886.856 340.057 896.453 330.78 903.278 318.41C910.315 306.041 913.834 290.686 913.834 272.345C913.834 253.79 910.315 238.542 903.278 226.599C896.453 214.656 887.069 205.805 875.126 200.047C863.183 194.289 849.534 191.41 834.179 191.41C826.288 191.41 818.61 192.796 811.146 195.568C803.682 198.341 796.857 201.966 790.672 206.445C784.701 210.71 779.796 215.189 775.957 219.881L792.272 257.309ZM971.419 352.64C970.353 355.626 967.58 358.611 963.102 361.597C958.623 364.583 953.505 367.355 947.746 369.914C942.201 372.474 936.87 374.82 931.751 376.952L951.265 422.058C961.502 419.712 971.419 416.087 981.016 411.182C990.613 406.277 999.037 400.305 1006.29 393.267C1013.54 386.229 1018.76 378.552 1021.96 370.234L1090.1 196.848H1032.2L1002.45 284.501L970.779 191.09L917.036 206.445L972.699 349.121L971.419 352.64Z" fill="white"/>
</svg>

<svg xmlns="http://www.w3.org/2000/svg" width="1094" height="525" fill="none" viewBox="0 0 1094 525"><path fill="#fff" d="m172.452 437.295-9.886-13.277v16.635c3.762.128 7.416-1.525 9.886-3.358"/><path fill="#fff" fill-rule="evenodd" d="M63.777 157.807c-15.16 19.793-25.838 44.042-30.572 70.471a49.2 49.2 0 0 0-.74 10.501 56 56 0 0 0-2.693 2.438c-11.574 11.176-17.794 26.794-17.794 44.488 0 19.309 5.043 52.536 15.49 81.301 5.228 14.396 12.25 28.932 21.622 40.197 9.388 11.288 22.854 21.201 40.506 21.201 18.143 0 28.065-13.507 33.255-24.804 2.706 3.066 5.479 6.659 8.594 10.76l.418.55c5.429 7.152 12.054 15.881 20.818 22.386 2.469 1.833 5.832 3.357 9.885 3.357v-16.635l9.886 13.277c8.757-6.5 15.38-15.223 20.808-22.372l.427-.562c3.963-5.218 7.372-9.612 10.793-13.148 4.855 11.681 14.857 27.191 34.299 27.191 17.651 0 31.118-9.913 40.506-21.201 9.371-11.265 16.394-25.801 21.622-40.197 10.447-28.765 15.491-61.992 15.491-81.301 0-17.694-6.221-33.312-17.795-44.488a56 56 0 0 0-7.143-5.843 49 49 0 0 0-.711-6.601c-4.685-26.608-15.393-51.025-30.636-70.937l-.157-.204a146 146 0 0 0-4.289-5.324l1.064-1.063-8.557-8.545.002-.001 6.593-6.583-1.537-2.46.842-1.505-2.736-1.525-1.662-2.66-1.468.915-2.122-1.183-6.469 6.459-.208.207-3.468 2.162 1.684-2.047a131 131 0 0 0-8.808-6.626 128 128 0 0 0-5.045-3.297c-18.263-11.324-39.276-17.872-61.838-17.872-23.275 0-44.9 6.968-63.557 18.957q-2.045 1.314-4.04 2.707a131 131 0 0 0-8.822 6.732l.948 1.136-3.464-2.102-8.557 8.545-.104-.103v-.001l8.532-8.519.127.078-.102-.103-6.552-6.542-2.21 1.268-1.477-.896-1.63 2.678-2.717 1.559.86 1.495-1.446 2.377 6.615 6.606 1.063 1.846a143 143 0 0 0-7.752 8.563 147 147 0 0 0-3.872 4.842m29.183 3.233 3.884-3.927 4.166-3.467c17.369-14.453 38.304-22.795 60.924-22.795 22.363 0 43.077 8.154 60.327 22.302l4.193 3.439 3.907 3.899c18.226 18.187 31.462 43.568 36.552 72.467.453 2.575.494 5.112.175 7.56l-1.109 8.52 7.695 3.844a32.5 32.5 0 0 1 8.102 5.705c6.34 6.122 10.418 15.213 10.418 27.118 0 16.396-4.516 46.84-14.039 73.063-4.761 13.107-10.626 24.745-17.489 32.995-6.863 8.252-14.146 12.475-21.887 12.475-2.364 0-4.283-.844-6.326-2.958-2.293-2.372-4.435-6.105-6.252-10.931-1.238-3.286-2.343-7.088-3.315-11.348l-3.601-15.776-14.127 7.927a95 95 0 0 1-2.542 1.375c-12.497 6.514-20.966 17.677-27.599 26.42l-.615.811c-4.294 5.652-7.958 10.405-11.836 14.215-3.878-3.81-7.543-8.563-11.836-14.215l-.614-.808c-6.631-8.743-15.097-19.904-27.591-26.417l-13.74-7.165-3.627 15.047c-.891 3.697-1.887 7.021-2.984 9.934-1.817 4.826-3.96 8.559-6.252 10.931-2.043 2.114-3.962 2.958-6.326 2.958-7.741 0-15.024-4.223-21.887-12.475-6.863-8.25-12.728-19.888-17.488-32.995-9.524-26.223-14.04-56.667-14.04-73.063 0-11.905 4.079-20.996 10.417-27.118a32.2 32.2 0 0 1 5.155-4.044l7.05-4.457-1.667-8.164a24.9 24.9 0 0 1-.105-9.389c5.091-28.431 18.074-53.436 35.929-71.493" clip-rule="evenodd"/><circle cx="61.882" cy="120.27" r="34.934" fill="#fff"/><circle cx="259.506" cy="120.27" r="34.934" fill="#fff"/><ellipse cx="162.231" cy="480.452" fill="#fff" opacity=".3" rx="78.984" ry="14.582"/><path fill="#fff" stroke="#000" stroke-width="12.151" d="M238.43 409.465c40.895 0 59.509-90.536 59.509-124.864 0-26.756-18.466-42.972-42.743-42.972-24.125 0-43.71 10.372-43.953 23.216-.001 33.897-5.968 144.62 27.187 144.62Zm-149.159 0c-40.895 0-59.51-90.536-59.51-124.864 0-26.756 18.467-42.972 42.743-42.972 24.125 0 43.711 10.372 43.954 23.216.001 33.897 5.968 144.62-27.187 144.62Z"/><path fill="#ffdf6f" stroke="#000" stroke-width="12.09" d="M55.476 273.994v-.002c-.044-.418.041-.66.128-.818.102-.187.297-.409.624-.595.676-.384 1.624-.454 2.506.063 30.307 17.764 65.264 27.948 103.269 27.948 38.012 0 73.617-10.382 104.119-28.457.876-.519 1.821-.455 2.5-.073.328.185.524.407.628.594.088.159.174.402.132.821-4.719 46.758-30.081 85.415-64.171 103.209-11.26 5.878-19.002 16.089-25.802 25.058l-.364.48-.001.002c-5.527 7.291-10.529 13.82-16.642 18.631-6.113-4.811-11.115-11.34-16.642-18.631l-.001-.002-.365-.481c-6.8-8.968-14.542-19.179-25.801-25.057h-.001c-33.96-17.725-59.257-56.158-64.116-102.69Z"/><ellipse cx="162.635" cy="273.069" fill="#000" stroke="#000" stroke-width="12.151" rx="106.932" ry="35.644"/><path stroke="#000" stroke-linecap="round" stroke-width="12.151" d="M76.765 333.016s52.744 17.822 86.68 17.822 86.68-17.822 86.68-17.822"/><circle cx="24.179" cy="24.179" r="24.179" fill="#000" transform="matrix(-1 0 0 1 86.24 96.469)"/><path stroke="#000" stroke-width="12.09" d="m58.03 117.021 45.136 45.135"/><circle cx="259.525" cy="120.648" r="24.179" fill="#000"/><path stroke="#000" stroke-width="12.09" d="m263.958 117.021-45.135 45.135"/><path fill="#ffdf6f" fill-rule="evenodd" d="M68.924 264.933c-13.032-6.204-20.616-20.136-18.076-34.343 10.904-60.981 56.347-106.718 110.751-106.718 54.535 0 100.066 45.959 110.829 107.161 2.503 14.234-5.143 28.159-18.219 34.313-27.981 13.167-59.235 20.528-92.207 20.528-33.315 0-64.876-7.515-93.078-20.941" clip-rule="evenodd"/><path fill="#000" d="m272.428 231.033 5.954-1.047zm-203.504 33.9-2.599 5.458zm-12.125-33.279c10.536-58.924 54.09-101.737 104.8-101.737v-12.09c-58.097 0-105.43 48.661-116.701 111.699zm104.8-101.737c50.832 0 94.475 43.022 104.876 102.163l11.907-2.094c-11.126-63.263-58.545-112.159-116.783-112.159zm90.036 129.959c-27.193 12.797-57.569 19.953-89.633 19.953v12.089c33.881 0 66.011-7.564 94.781-21.103zm-89.633 19.953c-32.398 0-63.072-7.306-90.48-20.354l-5.196 10.916c28.997 13.805 61.443 21.527 95.676 21.527zm104.473-47.749c2.006 11.412-4.104 22.744-14.84 27.796l5.148 10.939c15.416-7.255 24.598-23.773 21.599-40.829zm-221.577-2.554c-3.045 17.025 6.064 33.551 21.428 40.865l5.196-10.916c-10.7-5.094-16.76-16.431-14.723-27.821z"/><path fill="#000" fill-rule="evenodd" d="M92.176 249.773c-10.49-4.273-16.713-15.434-13.078-26.161 11.21-33.083 43.909-57.023 82.501-57.023s71.291 23.94 82.5 57.023c3.635 10.728-2.587 21.889-13.077 26.161-21.425 8.725-44.863 13.533-69.423 13.533s-47.998-4.808-69.423-13.533" clip-rule="evenodd"/><ellipse cx="189.405" cy="218.171" fill="#fff" rx="20.149" ry="16.12"/><ellipse cx="131.723" cy="218.181" fill="#fff" rx="20.149" ry="16.12"/><path fill="#fff" d="M557.242 263.387h-42.547l20.794-59.181zm-49.904-128.92L425.763 352h57.902l15.035-42.867h75.177l15.675 46.066 57.263-5.758-81.255-214.974zM721.012 352V126.15l-58.222 3.519V352zm61.343 0 28.791-29.111V126.15l-58.222 3.519V352zm9.917-94.691q9.277-9.597 17.275-15.355 7.996-5.758 15.675-5.758 9.276 0 15.355 4.159 6.398 4.158 9.597 12.476 3.519 7.997 3.519 19.834 0 11.835-3.519 20.473t-9.277 13.116q-5.759 4.479-13.116 4.479-8.317 0-17.275-4.479-8.956-4.798-18.234-13.436l-16.315 34.23q8.957 10.236 17.914 16.635 9.277 6.077 18.555 8.957 9.597 2.879 19.194 2.879 24.632 0 42.866-9.277 18.555-9.277 28.792-27.832 10.556-18.553 10.556-46.065 0-27.832-10.556-45.746-10.237-17.915-28.152-26.552t-40.947-8.637q-11.837 0-23.033 4.158t-20.474 10.877q-8.957 6.398-14.715 13.436zm179.147 95.331q-1.6 4.479-8.317 8.957t-15.356 8.317a462 462 0 0 1-15.995 7.038l19.514 45.106q15.356-3.519 29.751-10.876 14.395-7.358 25.274-17.915c7.25-7.038 12.47-14.715 15.67-23.033l68.14-173.386h-57.9l-29.75 87.653-31.671-93.411-53.743 15.355 55.663 142.676z"/></svg>
